X:751
T:Tullochgorm
M:4/4
L:1/8
K:C
c|:"G"B/G3/2d3/2G/ "F"cFA3/2c/|"G"B/G3/2d3/2G/ B3/2c/d/g3/2|\
B/G3/2d3/2G/ "F"c3/2F/A3/2c/|"G"B/G3/2d3/2G/ "F"c2 BA|
"G"B/G3/2dG "F"c3/2F/A3/2c/|"G"B/G3/2d3/2G/ B3/2c/d/g3/2|\
B/G3/2dG "F"c3/2F/A3/2c/|"G"B/G3/2d3/2G/ "F"c2 BA:|
|:"G"G/g3/2d3/2e/ "F"f3/2F/ A2|"G"G3/2g/d/g3/2 B/g3/2d/g3/2|\
G/g3/2d3/2g/ "F"f3/2F/ A2|"G"G3/2g/d/g3/2 c2 BA|
"G"G/g3/2d3/2e/ "F"f3/2F/ A2|"G"Ggde "F"fcfg|"Dm"a/g/f/e/ "F"fd cFAa|\
"G"gdgb "Em"egdg:|
